; G-Code generated by Simplify3D(R) Version 3.0.2
; Apr 27, 2016 at 9:58:54 AM
; Settings Summary
;   processName,Process1
;   applyToModels,3DBenchy
;   profileName,Hybrid Pro (modified)
;   profileVersion,2016-04-25 13:25:19
;   baseProfile,Plywood
;   printMaterial,PLA
;   printQuality,High
;   printExtruders,
;   extruderName,Primary Extruder
;   extruderToolheadNumber,0
;   extruderDiameter,0.4
;   extruderAutoWidth,1
;   extruderWidth,0.48
;   extrusionMultiplier,1
;   extruderUseRetract,1
;   extruderRetractionDistance,1.5
;   extruderExtraRestartDistance,0
;   extruderRetractionZLift,0
;   extruderRetractionSpeed,4500
;   extruderUseCoasting,0
;   extruderCoastingDistance,0.2
;   extruderUseWipe,0
;   extruderWipeDistance,5
;   primaryExtruder,0
;   layerHeight,0.25
;   topSolidLayers,3
;   bottomSolidLayers,3
;   perimeterOutlines,3
;   printPerimetersInsideOut,1
;   startPointOption,2
;   startPointOriginX,100
;   startPointOriginY,0
;   startPointOriginZ,150
;   sequentialIslands,0
;   spiralVaseMode,0
;   firstLayerHeightPercentage,99
;   firstLayerWidthPercentage,100
;   firstLayerUnderspeed,0.75
;   useRaft,0
;   raftExtruder,0
;   raftLayers,3
;   raftOffset,5
;   raftSeparationDistance,0.1
;   raftInfill,85
;   disableRaftBaseLayers,0
;   useSkirt,1
;   skirtExtruder,0
;   skirtLayers,1
;   skirtOutlines,1
;   skirtOffset,5
;   usePrimePillar,0
;   primePillarExtruder,999
;   primePillarWidth,12
;   primePillarLocation,7
;   primePillarSpeedMultiplier,1
;   useOozeShield,0
;   oozeShieldExtruder,999
;   oozeShieldOffset,10
;   oozeShieldOutlines,1
;   oozeShieldSidewallShape,0
;   oozeShieldSidewallAngle,30
;   oozeShieldSpeedMultiplier,1
;   infillExtruder,0
;   internalInfillPattern,Triangular
;   externalInfillPattern,Rectilinear
;   infillPercentage,22
;   outlineOverlapPercentage,15
;   infillExtrusionWidthPercentage,100
;   minInfillLength,1
;   infillLayerInterval,1
;   infillAngles,0,60,-60
;   overlapInfillAngles,1
;   generateSupport,0
;   supportExtruder,0
;   supportInfillPercentage,20
;   supportExtraInflation,0
;   denseSupportLayers,0
;   denseSupportInfillPercentage,70
;   supportLayerInterval,1
;   supportHorizontalPartOffset,0.3
;   supportUpperSeparationLayers,1
;   supportLowerSeparationLayers,1
;   supportType,0
;   supportGridSpacing,3
;   maxOverhangAngle,25
;   supportAngles,0
;   temperatureName
;   temperatureNumber
;   temperatureSetpointCount
;   temperatureSetpointLayers
;   temperatureSetpointTemperatures
;   temperatureStabilizeAtStartup
;   temperatureHeatedBed
;   temperatureRelayBetweenLayers
;   temperatureRelayBetweenLoops
;   fanLayers,3,4,5,6,7,8,9,10
;   fanSpeeds,30,40,50,60,70,80,90,100
;   blipFanToFullPower,1
;   adjustSpeedForCooling,1
;   minSpeedLayerTime,15
;   minCoolingSpeedSlowdown,20
;   increaseFanForCooling,1
;   minFanLayerTime,15
;   maxCoolingFanSpeed,100
;   increaseFanForBridging,1
;   bridgingFanSpeed,100
;   use5D,1
;   relativeEdistances,1
;   allowEaxisZeroing,1
;   independentExtruderAxes,0
;   includeM10123,0
;   stickySupport,1
;   applyToolheadOffsets,0
;   gcodeXoffset,0
;   gcodeYoffset,0
;   gcodeZoffset,0
;   overrideMachineDefinition,1
;   machineTypeOverride,0
;   strokeXoverride,300
;   strokeYoverride,200
;   strokeZoverride,280
;   originOffsetXoverride,0
;   originOffsetYoverride,0
;   originOffsetZoverride,0
;   homeXdirOverride,-1
;   homeYdirOverride,-1
;   homeZdirOverride,-1
;   flipXoverride,1
;   flipYoverride,-1
;   flipZoverride,1
;   toolheadOffsets,0,0|0,0|0,0|0,0|0,0|0,0
;   overrideFirmwareConfiguration,0
;   firmwareTypeOverride,RepRap (Marlin/Repetier/Sprinter)
;   GPXconfigOverride,r2
;   baudRateOverride,250000
;   overridePrinterModels,0
;   printerModelsOverride
;   startingGcode,;BigBox Printer Start Script Begin,,M117 Print Starting.,,;Dock,G1 X95 Y200 F3000,G1 X95 Y235 F3000,,;Prime Extruder,T0 	;Select Extruder 0,G92 E0 	;Reset E,G1 E10 F200 	;Extruder 10mm,G92 E0 	;Reset E,,;Undock,G1 X105 Y235 F3000,G1 X105 Y200 F3000,,;BigBox Printer Start Script End,
;   layerChangeGcode,
;   retractionGcode,
;   toolChangeGcode,
;   endingGcode,;BigBox Printer End Script Begin,,M117 Print Complete.,,;Dock,G1 X95 Y200 F3000,G1 X95 Y235 F3000,,;Disable Systems,T0	;Select Extruder 0,M104 S0 	;Turn off Hotend,M140 S0	;Turn off Heated Bed,M84	;Disable Stepper Motors,M106 S0	;Stop Print Cooling Fan,,;BigBox Printer End Script Begin
;   createX3G,0
;   celebration,0
;   celebrationSong,Random Song
;   createMB5G,0
;   postProcessing,{REPLACE "M117 Layer" "M117 Layer"} ,{REPLACE ", Z = " " | Z="}
;   defaultSpeed,2400
;   outlineUnderspeed,0.5
;   solidInfillUnderspeed,0.75
;   supportUnderspeed,0.75
;   rapidXYspeed,4800
;   rapidZspeed,180
;   minBridgingArea,50
;   bridgingExtraInflation,0.4
;   bridgingExtrusionMultiplier,1
;   bridgingSpeedMultiplier,1
;   filamentDiameter,1.75
;   filamentPricePerKg,15
;   filamentDensity,1.25
;   useMinPrintHeight,0
;   minPrintHeight,0
;   useMaxPrintHeight,0
;   maxPrintHeight,0
;   useDiaphragm,0
;   diaphragmLayerInterval,20
;   robustSlicing,1
;   mergeAllIntoSolid,0
;   onlyRetractWhenCrossingOutline,0
;   retractBetweenLayers,1
;   useRetractionMinTravel,0
;   retractionMinTravel,3
;   retractWhileWiping,0
;   onlyWipeOutlines,1
;   avoidCrossingOutline,0
;   maxMovementDetourFactor,3
;   toolChangeRetractionDistance,12
;   toolChangeExtraRestartDistance,-0.5
;   toolChangeRetractionSpeed,600
;   allowThinWallGapFill,1
;   thinWallAllowedOverlapPercentage,10
;   horizontalSizeCompensation,0
G90
M83
;BigBox Printer Start Script Begin
M117 Print Starting.
;Dock
G1 X95 Y200 F3000
G1 X95 Y235 F3000
;Prime Extruder
T0 	;Select Extruder 0
G92 E0 	;Reset E
G1 E10 F200 	;Extruder 10mm
G92 E0 	;Reset E
;Undock
G1 X105 Y235 F3000
G1 X105 Y200 F3000
;BigBox Printer Start Script End
G1 E-1.5000 F4500
G1 Z0.248 F180
M117 Layer 1, Z = 0.2475
T0
; tool H0.250 W0.480
; skirt
G1 X120.253 Y90.895 F4800
G1 E1.5000 F1350
G1 X120.260 Y90.886 E0.0005 F1800
G1 X120.548 Y90.528 E0.0229
G1 X120.555 Y90.520 E0.0005
G1 X121.175 Y89.877 E0.0446
G1 X121.185 Y89.868 E0.0007
G1 X121.632 Y89.498 E0.0289
G1 X121.643 Y89.490 E0.0007
G1 X122.451 Y88.964 E0.0481
G1 X122.464 Y88.956 E0.0007
G1 X123.034 Y88.679 E0.0316
G1 X123.048 Y88.673 E0.0007
G1 X124.067 Y88.324 E0.0537
G1 X124.079 Y88.320 E0.0006
G1 X124.598 Y88.201 E0.0266
G1 X124.610 Y88.199 E0.0006
G1 X125.204 Y88.126 E0.0299
G1 X125.208 Y88.126 E0.0002
G1 X125.365 Y88.111 E0.0078
G1 X125.368 Y88.111 E0.0002
G1 X149.027 Y86.670 E1.1825
G1 X149.030 Y86.670 E0.0001
G1 X149.134 Y86.666 E0.0052
G1 X149.137 Y86.666 E0.0001
G1 X150.190 Y86.645 E0.0526
G1 X150.193 Y86.645 E0.0002
G1 X150.347 Y86.646 E0.0076
G1 X150.350 Y86.647 E0.0002
G1 X151.410 Y86.689 E0.0529
G1 X151.413 Y86.689 E0.0002
G1 X151.582 Y86.701 E0.0084
G1 X151.586 Y86.702 E0.0002
G1 X152.769 Y86.828 E0.0593
G1 X152.772 Y86.828 E0.0002
G1 X152.940 Y86.852 E0.0085
G1 X152.944 Y86.852 E0.0002
G1 X154.045 Y87.044 E0.0557
G1 X154.049 Y87.044 E0.0002
G1 X154.199 Y87.075 E0.0077
G1 X154.203 Y87.076 E0.0002
G1 X155.181 Y87.307 E0.0502
G1 X155.185 Y87.308 E0.0002
G1 X155.345 Y87.352 E0.0083
G1 X155.348 Y87.353 E0.0002
G1 X156.567 Y87.726 E0.0636
G1 X156.571 Y87.727 E0.0002
G1 X156.754 Y87.791 E0.0097
G1 X156.758 Y87.792 E0.0002
G1 X158.032 Y88.290 E0.0682
G1 X158.036 Y88.292 E0.0002
G1 X158.213 Y88.369 E0.0096
G1 X158.217 Y88.371 E0.0002
G1 X159.313 Y88.897 E0.0606
G1 X159.316 Y88.899 E0.0002
G1 X159.465 Y88.977 E0.0084
G1 X159.469 Y88.978 E0.0002
G1 X160.429 Y89.520 E0.0550
G1 X160.432 Y89.522 E0.0002
G1 X160.560 Y89.599 E0.0074
G1 X160.563 Y89.601 E0.0002
G1 X161.384 Y90.130 E0.0487
G1 X161.388 Y90.132 E0.0002
G1 X161.529 Y90.230 E0.0086
G1 X161.532 Y90.232 E0.0002
G1 X162.624 Y91.044 E0.0679
G1 X162.628 Y91.046 E0.0002
G1 X162.767 Y91.157 E0.0089
G1 X162.770 Y91.160 E0.0002
G1 X163.554 Y91.832 E0.0515
G1 X163.557 Y91.835 E0.0002
G1 X163.684 Y91.951 E0.0086
G1 X163.687 Y91.954 E0.0002
G1 X164.633 Y92.882 E0.0661
G1 X164.636 Y92.885 E0.0002
G1 X164.768 Y93.025 E0.0096
G1 X164.771 Y93.029 E0.0002
G1 X165.639 Y94.018 E0.0657
G1 X165.641 Y94.022 E0.0002
G1 X165.751 Y94.156 E0.0086
G1 X165.753 Y94.159 E0.0002
G1 X166.392 Y94.995 E0.0525
G1 X166.394 Y94.999 E0.0002
G1 X166.495 Y95.140 E0.0086
G1 X166.497 Y95.143 E0.0002
G1 X167.238 Y96.264 E0.0671
G1 X167.242 Y96.269 E0.0003
G1 X167.378 Y96.501 E0.0134
G1 X167.381 Y96.506 E0.0003
G1 X167.903 Y97.510 E0.0565
G1 X167.910 Y97.526 E0.0009
G1 X168.154 Y98.229 E0.0371
G1 X168.159 Y98.246 E0.0009
G1 X168.356 Y99.275 E0.0523
G1 X168.358 Y99.291 E0.0008
G1 X168.397 Y99.967 E0.0338
G1 X168.397 Y99.983 E0.0008
G1 X168.319 Y101.011 E0.0514
G1 X168.317 Y101.028 E0.0009
G1 X168.160 Y101.740 E0.0364
G1 X168.155 Y101.756 E0.0009
G1 X167.777 Y102.762 E0.0536
G1 X167.772 Y102.773 E0.0006
G1 X167.525 Y103.265 E0.0275
G1 X167.518 Y103.276 E0.0006
G1 X166.480 Y104.882 E0.0954
G1 X166.476 Y104.887 E0.0003
G1 X166.325 Y105.096 E0.0129
G1 X166.322 Y105.101 E0.0003
G1 X165.249 Y106.442 E0.0857
G1 X165.246 Y106.445 E0.0002
G1 X165.117 Y106.594 E0.0098
G1 X165.114 Y106.597 E0.0002
G1 X164.451 Y107.307 E0.0485
G1 X164.448 Y107.309 E0.0002
G1 X164.349 Y107.410 E0.0070
G1 X164.347 Y107.412 E0.0002
G1 X163.613 Y108.115 E0.0507
G1 X163.610 Y108.118 E0.0002
G1 X163.469 Y108.243 E0.0094
G1 X163.466 Y108.246 E0.0002
G1 X162.300 Y109.209 E0.0754
G1 X162.297 Y109.211 E0.0002
G1 X162.153 Y109.323 E0.0091
G1 X162.149 Y109.325 E0.0002
G1 X161.369 Y109.881 E0.0478
G1 X161.366 Y109.883 E0.0002
G1 X161.247 Y109.963 E0.0071
G1 X161.245 Y109.964 E0.0002
G1 X160.398 Y110.499 E0.0499
G1 X160.395 Y110.501 E0.0002
G1 X160.266 Y110.577 E0.0075
G1 X160.263 Y110.579 E0.0002
G1 X159.329 Y111.095 E0.0533
G1 X159.325 Y111.097 E0.0002
G1 X159.177 Y111.173 E0.0083
G1 X159.173 Y111.175 E0.0002
G1 X158.094 Y111.683 E0.0595
G1 X158.090 Y111.684 E0.0002
G1 X157.943 Y111.748 E0.0080
G1 X157.939 Y111.750 E0.0002
G1 X156.979 Y112.130 E0.0516
G1 X156.974 Y112.132 E0.0002
G1 X156.783 Y112.199 E0.0101
G1 X156.778 Y112.201 E0.0002
G1 X155.171 Y112.694 E0.0839
G1 X155.166 Y112.696 E0.0002
G1 X154.981 Y112.745 E0.0096
G1 X154.976 Y112.746 E0.0002
G1 X154.073 Y112.951 E0.0462
G1 X154.070 Y112.951 E0.0002
G1 X153.936 Y112.978 E0.0068
G1 X153.933 Y112.979 E0.0002
G1 X152.941 Y113.148 E0.0502
G1 X152.937 Y113.149 E0.0002
G1 X152.765 Y113.173 E0.0087
G1 X152.761 Y113.173 E0.0002
G1 X151.420 Y113.310 E0.0672
G1 X151.415 Y113.310 E0.0002
G1 X151.229 Y113.322 E0.0093
G1 X151.225 Y113.323 E0.0002
G1 X150.062 Y113.356 E0.0580
G1 X150.059 Y113.356 E0.0002
G1 X149.913 Y113.356 E0.0073
G1 X149.910 Y113.356 E0.0002
G1 X149.116 Y113.334 E0.0396
G1 X149.114 Y113.334 E0.0001
G1 X149.031 Y113.330 E0.0042
G1 X149.029 Y113.330 E0.0001
G1 X125.323 Y111.886 E1.1849
G1 X125.317 Y111.886 E0.0003
G1 X125.070 Y111.859 E0.0124
G1 X125.065 Y111.858 E0.0003
G1 X124.314 Y111.739 E0.0379
G1 X124.302 Y111.736 E0.0006
G1 X123.802 Y111.604 E0.0258
G1 X123.791 Y111.600 E0.0006
G1 X122.966 Y111.291 E0.0439
G1 X122.955 Y111.286 E0.0006
G1 X122.480 Y111.048 E0.0265
G1 X122.469 Y111.042 E0.0006
G1 X121.715 Y110.563 E0.0446
G1 X121.705 Y110.555 E0.0007
G1 X121.270 Y110.207 E0.0278
G1 X121.260 Y110.198 E0.0007
G1 X120.613 Y109.553 E0.0456
G1 X120.605 Y109.543 E0.0006
G1 X120.256 Y109.111 E0.0277
G1 X120.249 Y109.100 E0.0006
G1 X119.727 Y108.286 E0.0483
G1 X119.719 Y108.272 E0.0007
G1 X119.443 Y107.693 E0.0320
G1 X119.438 Y107.679 E0.0007
G1 X119.090 Y106.629 E0.0552
G1 X119.087 Y106.617 E0.0006
G1 X118.971 Y106.074 E0.0277
G1 X118.968 Y106.062 E0.0006
G1 X118.892 Y105.326 E0.0369
G1 X118.892 Y105.320 E0.0003
G1 X118.878 Y105.057 E0.0131
G1 X118.878 Y105.051 E0.0003
G1 X118.876 Y95.022 E0.5003
G1 X118.877 Y95.017 E0.0003
G1 X118.887 Y94.780 E0.0118
G1 X118.888 Y94.775 E0.0003
G1 X118.957 Y94.029 E0.0374
G1 X118.958 Y94.017 E0.0006
G1 X119.049 Y93.539 E0.0243
G1 X119.052 Y93.528 E0.0006
G1 X119.284 Y92.726 E0.0417
G1 X119.287 Y92.716 E0.0005
G1 X119.444 Y92.310 E0.0217
G1 X119.448 Y92.300 E0.0005
G1 X119.721 Y91.737 E0.0313
G1 X119.725 Y91.730 E0.0004
G1 X119.898 Y91.428 E0.0174
G1 X119.902 Y91.421 E0.0004
G1 X120.253 Y90.895 E0.0316
G1 E-1.5000 F4500
; inner perimeter
G1 X125.425 Y94.747 F4800
G1 E1.5000 F4500
G1 X125.515 Y94.654 E0.0065 F1500
G1 X125.614 Y94.590 E0.0059
G1 X125.652 Y94.573 E0.0021
G1 X125.745 Y94.548 E0.0048
G1 X125.875 Y94.532 E0.0065
G1 X141.456 Y93.582 E0.7788
G1 X141.456 Y93.582 E0.0000
G1 X149.342 Y93.103 E0.3941
G1 X150.206 Y93.086 E0.0431
G1 X151.028 Y93.119 E0.0411
G1 X151.963 Y93.218 E0.0469
G1 X152.830 Y93.369 E0.0439
G1 X153.580 Y93.547 E0.0385
G1 X154.559 Y93.846 E0.0511
G1 X155.003 Y94.009 E0.0236
G1 X155.546 Y94.232 E0.0293
G1 X156.412 Y94.648 E0.0479
G1 X157.169 Y95.075 E0.0434
G1 X157.799 Y95.481 E0.0374
G1 X158.360 Y95.886 E0.0345
G1 X158.667 Y96.125 E0.0194
G1 X159.276 Y96.647 E0.0400
G1 X159.951 Y97.285 E0.0464
G1 X158.043 Y97.278 E0.0952
G1 X157.576 Y97.300 E0.0233
G1 X157.231 Y97.363 E0.0175
G1 X156.756 Y97.570 E0.0258
G1 X156.592 Y97.454 E0.0100
G1 X156.091 Y97.274 E0.0265
G1 X155.540 Y97.305 E0.0275
G1 X155.125 Y97.476 E0.0224
G1 X154.777 Y97.751 E0.0222
G1 X154.587 Y97.978 E0.0148
G1 X154.170 Y97.603 E0.0280
G1 X153.677 Y97.361 E0.0274
G1 X153.139 Y97.268 E0.0273
G1 X152.544 Y97.355 E0.0300
G1 X152.133 Y97.576 E0.0233
G1 X152.031 Y97.486 E0.0068
G1 X151.431 Y97.272 E0.0318
G1 X150.959 Y97.295 E0.0236
G1 X150.569 Y97.417 E0.0204
G1 X150.208 Y97.655 E0.0216
G1 X149.720 Y97.381 E0.0279
G1 X149.339 Y97.285 E0.0196
G1 X148.946 Y97.280 E0.0196
G1 X148.465 Y97.403 E0.0248
G1 X148.012 Y97.677 E0.0264
G1 X147.656 Y98.095 E0.0274
G1 X147.471 Y98.618 E0.0277
G1 X147.475 Y99.125 E0.0253
G1 X147.591 Y99.562 E0.0226
G1 X147.772 Y99.952 E0.0214
G1 X148.082 Y100.498 E0.0313
G1 X147.228 Y100.205 E0.0450
G1 X146.814 Y100.161 E0.0208
G1 X146.821 Y99.980 E0.0090
G1 X146.799 Y99.397 E0.0291
G1 X146.749 Y98.994 E0.0203
G1 X146.676 Y98.626 E0.0187
G1 X146.532 Y98.148 E0.0249
G1 X146.389 Y97.807 E0.0185
G1 X146.155 Y97.386 E0.0240
G1 X145.953 Y97.104 E0.0173
G1 X145.720 Y96.838 E0.0177
G1 X145.319 Y96.491 E0.0265
G1 X145.028 Y96.307 E0.0172
G1 X144.718 Y96.156 E0.0172
G1 X144.150 Y95.980 E0.0297
G1 X143.620 Y95.893 E0.0268
G1 X143.199 Y95.859 E0.0211
G1 X141.702 Y95.833 E0.0747
G1 X141.373 Y95.858 E0.0165
G1 X141.042 Y95.931 E0.0169
G1 X140.615 Y96.119 E0.0233
G1 X140.264 Y96.424 E0.0232
G1 X140.127 Y96.624 E0.0121
G1 X139.890 Y96.370 E0.0173
G1 X139.602 Y96.147 E0.0182
G1 X139.203 Y95.932 E0.0226
G1 X138.866 Y95.812 E0.0178
G1 X138.427 Y95.718 E0.0224
G1 X138.041 Y95.676 E0.0193
G1 X137.533 Y95.675 E0.0254
G1 X137.314 Y95.694 E0.0109
G1 X136.941 Y95.749 E0.0189
G1 X136.506 Y95.870 E0.0225
G1 X136.185 Y96.006 E0.0174
G1 X135.806 Y96.229 E0.0219
G1 X135.567 Y96.039 E0.0152
G1 X135.178 Y95.890 E0.0208
G1 X134.780 Y95.841 E0.0200
G1 X131.514 Y95.856 E0.1629
G1 X130.761 Y95.806 E0.0377
G1 X130.244 Y95.914 E0.0263
G1 X129.874 Y96.124 E0.0212
G1 X129.679 Y96.308 E0.0134
G1 X129.066 Y95.954 E0.0353
G1 X128.579 Y95.785 E0.0257
G1 X128.054 Y95.692 E0.0266
G1 X127.433 Y95.673 E0.0310
G1 X126.933 Y95.723 E0.0251
G1 X126.592 Y95.795 E0.0174
G1 X126.253 Y95.903 E0.0177
G1 X125.806 Y96.105 E0.0245
G1 X125.317 Y96.419 E0.0290
G1 X125.316 Y95.195 E0.0611
G1 X125.337 Y94.978 E0.0109
G1 X125.380 Y94.826 E0.0079
G1 X125.403 Y94.780 E0.0025
G1 X125.425 Y94.747 E0.0020
G1 E-1.5000 F4500
G1 X127.425 Y99.038 F4800
G1 E1.5000 F4500
G1 X127.881 Y99.318 E0.0267 F1500
G1 X128.268 Y99.497 E0.0213
G1 X128.726 Y99.605 E0.0235
G1 X129.217 Y99.577 E0.0245
G1 X129.616 Y99.431 E0.0212
G1 X129.929 Y99.218 E0.0189
G1 X130.082 Y99.057 E0.0111
G1 X130.295 Y99.177 E0.0122
G1 X130.881 Y99.253 E0.0295
G1 X131.083 Y99.230 E0.0101
G1 X131.099 Y101.890 E0.1327
G1 X131.058 Y102.407 E0.0259
G1 X131.078 Y102.837 E0.0215
G1 X131.245 Y103.316 E0.0253
G1 X131.571 Y103.719 E0.0258
G1 X132.088 Y104.010 E0.0296
G1 X132.484 Y104.099 E0.0202
G1 X132.875 Y104.116 E0.0195
G1 X133.456 Y103.982 E0.0298
G1 X133.909 Y103.665 E0.0276
G1 X134.179 Y103.323 E0.0217
