; G-Code generated by Simplify3D(R) Version 3.0.2
; Mar 31, 2016 at 10:49:05 AM
; Settings Summary
;   processName,Process1
;   applyToModels,3DBenchy
;   profileName,Two
;   profileVersion,2016-03-14 15:33:18
;   baseProfile,Generic Dual Extrusion Profile (modified)
;   printMaterial,PLA
;   printQuality,Medium
;   printExtruders,Both Extruders
;   extruderName,Extruder 1,Extruder 2
;   extruderToolheadNumber,0,1
;   extruderDiameter,0.4,0.4
;   extruderAutoWidth,1,1
;   extruderWidth,0.48,0.48
;   extrusionMultiplier,1,1
;   extruderUseRetract,1,1
;   extruderRetractionDistance,3.5,1.5
;   extruderExtraRestartDistance,0.25,0
;   extruderRetractionZLift,0.25,0.25
;   extruderRetractionSpeed,4200,3000
;   extruderUseCoasting,0,0
;   extruderCoastingDistance,0.2,0.2
;   extruderUseWipe,0,0
;   extruderWipeDistance,5,5
;   primaryExtruder,1
;   layerHeight,0.2
;   topSolidLayers,3
;   bottomSolidLayers,3
;   perimeterOutlines,3
;   printPerimetersInsideOut,1
;   startPointOption,3
;   startPointOriginX,150
;   startPointOriginY,0
;   startPointOriginZ,200
;   sequentialIslands,0
;   spiralVaseMode,0
;   firstLayerHeightPercentage,99
;   firstLayerWidthPercentage,100
;   firstLayerUnderspeed,0.75
;   useRaft,0
;   raftExtruder,0
;   raftLayers,3
;   raftOffset,3
;   raftSeparationDistance,0.1
;   raftInfill,90
;   disableRaftBaseLayers,1
;   useSkirt,1
;   skirtExtruder,1
;   skirtLayers,1
;   skirtOutlines,1
;   skirtOffset,3
;   usePrimePillar,0
;   primePillarExtruder,999
;   primePillarWidth,12
;   primePillarLocation,7
;   primePillarSpeedMultiplier,1
;   useOozeShield,0
;   oozeShieldExtruder,999
;   oozeShieldOffset,2
;   oozeShieldOutlines,1
;   oozeShieldSidewallShape,1
;   oozeShieldSidewallAngle,30
;   oozeShieldSpeedMultiplier,1
;   infillExtruder,1
;   internalInfillPattern,Triangular
;   externalInfillPattern,Rectilinear
;   infillPercentage,20
;   outlineOverlapPercentage,15
;   infillExtrusionWidthPercentage,100
;   minInfillLength,5
;   infillLayerInterval,1
;   infillAngles,0,60,-60
;   overlapInfillAngles,1
;   generateSupport,0
;   supportExtruder,0
;   supportInfillPercentage,35
;   supportExtraInflation,0.5
;   denseSupportLayers,3
;   denseSupportInfillPercentage,75
;   supportLayerInterval,1
;   supportHorizontalPartOffset,0.15
;   supportUpperSeparationLayers,0
;   supportLowerSeparationLayers,0
;   supportType,0
;   supportGridSpacing,1
;   maxOverhangAngle,35
;   supportAngles,45,-45
;   temperatureName
;   temperatureNumber
;   temperatureSetpointCount
;   temperatureSetpointLayers
;   temperatureSetpointTemperatures
;   temperatureStabilizeAtStartup
;   temperatureHeatedBed
;   temperatureRelayBetweenLayers
;   temperatureRelayBetweenLoops
;   fanLayers,3,4,5,6,7,8,9,10
;   fanSpeeds,30,40,50,60,70,80,90,100
;   blipFanToFullPower,1
;   adjustSpeedForCooling,1
;   minSpeedLayerTime,15
;   minCoolingSpeedSlowdown,20
;   increaseFanForCooling,0
;   minFanLayerTime,45
;   maxCoolingFanSpeed,100
;   increaseFanForBridging,1
;   bridgingFanSpeed,100
;   use5D,1
;   relativeEdistances,1
;   allowEaxisZeroing,1
;   independentExtruderAxes,0
;   includeM10123,0
;   stickySupport,1
;   applyToolheadOffsets,0
;   gcodeXoffset,0
;   gcodeYoffset,0
;   gcodeZoffset,0
;   overrideMachineDefinition,1
;   machineTypeOverride,0
;   strokeXoverride,300
;   strokeYoverride,200
;   strokeZoverride,290
;   originOffsetXoverride,0
;   originOffsetYoverride,0
;   originOffsetZoverride,0
;   homeXdirOverride,-1
;   homeYdirOverride,-1
;   homeZdirOverride,-1
;   flipXoverride,1
;   flipYoverride,-1
;   flipZoverride,1
;   toolheadOffsets,0,0|34,0|0,0|0,0|0,0|0,0
;   overrideFirmwareConfiguration,0
;   firmwareTypeOverride,RepRap (Marlin/Repetier/Sprinter)
;   GPXconfigOverride,r2
;   baudRateOverride,115200
;   overridePrinterModels,1
;   printerModelsOverride
;   startingGcode,;BigBox Printer Start Script Begin,,;Homing,M117 Homing.,;G28,;G29,,;dock,T0,G1 X70 Y200 F3000,G1 X70 Y235 F3000,,M117 Print Starting.,,;BigBox Printer Start Script End
;   layerChangeGcode,
;   retractionGcode,
;   toolChangeGcode,;BigBox Oozeless Tool Change Script Begin,,;clean,{IF NEWTOOL=1}T0,{IF NEWTOOL=1}G1 X80 Y214 F3000,{IF NEWTOOL=1}G1 X95 Y214 F5000,{IF NEWTOOL=1}G1 X56 Y214 F5000,{IF NEWTOOL=1}G1 X95 Y214 F5000,{IF NEWTOOL=1}G1 X56 Y214 F5000,{IF NEWTOOL=1}G1 X70 Y235 F3000,,{IF NEWTOOL=0}T1,{IF NEWTOOL=0}G1 X118 Y214 F3000,{IF NEWTOOL=0}G1 X133 Y214 F5000,{IF NEWTOOL=0}G1 X94 Y214 F5000,{IF NEWTOOL=0}G1 X133 Y214 F5000,{IF NEWTOOL=0}G1 X94 Y214 F5000,{IF NEWTOOL=0}G1 X108 Y235 F3000,,;purge,{IF OLDTOOL=1}T1,{IF OLDTOOL=1}G1 E25 F400,{IF OLDTOOL=1}G1 E-14  F4000,{IF OLDTOOL=0}T0,{IF OLDTOOL=0}G1 E27 F400,{IF OLDTOOL=0}G1 E-17  F4000,,;extruder steps per mm,;{IF NEWTOOL=0}M92 E320 ;adjust steps per mm for your filament in extruder 0 (L) ,;{IF NEWTOOL=1}M92 E320 ;adjust steps per mm for your filament in extruder 1 (R),,;prime new extruder,{IF NEWTOOL=0}T0,{IF NEWTOOL=1}T1,G1 F200,G1 E15 F200,G1 F50,G1 E5 F50,{IF NEWTOOL=0}G1 E-3.5 F3000,{IF NEWTOOL=1}G1 E-2.5 F3000,,;undock,{IF NEWTOOL=0}T0,{IF NEWTOOL=0}G1 X80 Y235 F3000,{IF NEWTOOL=0}G1 X80 Y200 F3000,{IF NEWTOOL=1}T1,{IF NEWTOOL=1}G1 X118 Y235 F3000,{IF NEWTOOL=1}G1 X118 Y200 F3000,,;BigBox Oozeless Tool Change Script End
;   endingGcode,;BigBox Printer End Script Begin,,M117 Print Complete.,,;Dock,T0,G1 X70 Y200 F3000,G1 X70 Y235 F3000,,;Disable Systems,T1	;Select Extruder 1,M104 S0 	;Turn off Hotend,T0	;Select Extruder 0,M104 S0 	;Turn off Hotend,M140 S0	;Turn off Heated Bed,M84	;Disable Stepper Motors,M106 S0	;Stop Print Cooling Fan,,;BigBox Printer End Script End
;   createX3G,0
;   celebration,0
;   celebrationSong,Random Song
;   createMB5G,0
;   postProcessing,{REPLACE "M117 Layer" "M117 Layer"} ,{REPLACE " Z=" " Z="}
;   defaultSpeed,2100
;   outlineUnderspeed,0.75
;   solidInfillUnderspeed,0.75
;   supportUnderspeed,0.75
;   rapidXYspeed,6000
;   rapidZspeed,600
;   minBridgingArea,15
;   bridgingExtraInflation,0.5
;   bridgingExtrusionMultiplier,1
;   bridgingSpeedMultiplier,1
;   filamentDiameter,1.75
;   filamentPricePerKg,46
;   filamentDensity,1.25
;   useMinPrintHeight,0
;   minPrintHeight,0
;   useMaxPrintHeight,0
;   maxPrintHeight,0
;   useDiaphragm,0
;   diaphragmLayerInterval,20
;   robustSlicing,1
;   mergeAllIntoSolid,0
;   onlyRetractWhenCrossingOutline,0
;   retractBetweenLayers,1
;   useRetractionMinTravel,0
;   retractionMinTravel,3
;   retractWhileWiping,0
;   onlyWipeOutlines,1
;   avoidCrossingOutline,0
;   maxMovementDetourFactor,3
;   toolChangeRetractionDistance,2
;   toolChangeExtraRestartDistance,0.5
;   toolChangeRetractionSpeed,3000
;   allowThinWallGapFill,1
;   thinWallAllowedOverlapPercentage,10
;   horizontalSizeCompensation,0
G90
M83
;BigBox Printer Start Script Begin
;Homing
M117 Homing.
;G28
;G29
;dock
T0
G1 X70 Y200 F3000
G1 X70 Y235 F3000
M117 Print Starting.
;BigBox Printer Start Script End
G1 E-1.5000 F3000
G1 Z0.448 F600
M117 Layer 1, Z=0.198
;BigBox Oozeless Tool Change Script Begin
;clean
;purge
;extruder steps per mm
;{IF NEWTOOL=0}M92 E320 ;adjust steps per mm for your filament in extruder 0 (L) 
;{IF NEWTOOL=1}M92 E320 ;adjust steps per mm for your filament in extruder 1 (R)
;prime new extruder
T1
G1 F200
G1 E15 F200
G1 F50
G1 E5 F50
G1 E-2.5 F3000
;undock
T1
G1 X118 Y235 F3000
G1 X118 Y200 F3000
;BigBox Oozeless Tool Change Script End
T1
; tool H0.200 W0.480
; skirt
G1 X135.125 Y95.334 F6000
G1 Z0.198 F600
G1 E1.5000 F900
G1 X135.127 Y95.332 E0.0001 F1575
G1 X135.185 Y95.255 E0.0038
G1 X135.187 Y95.252 E0.0001
G1 X135.792 Y94.496 E0.0387
G1 X135.794 Y94.493 E0.0002
G1 X135.864 Y94.412 E0.0043
G1 X135.866 Y94.409 E0.0002
G1 X136.731 Y93.467 E0.0510
G1 X136.733 Y93.465 E0.0002
G1 X136.806 Y93.390 E0.0041
G1 X136.809 Y93.388 E0.0002
G1 X137.482 Y92.746 E0.0371
G1 X137.484 Y92.744 E0.0001
G1 X137.555 Y92.680 E0.0038
G1 X137.558 Y92.678 E0.0001
G1 X138.396 Y91.971 E0.0438
G1 X138.400 Y91.968 E0.0002
G1 X138.498 Y91.892 E0.0050
G1 X138.502 Y91.889 E0.0002
G1 X139.707 Y91.027 E0.0591
G1 X139.711 Y91.025 E0.0002
G1 X139.805 Y90.963 E0.0045
G1 X139.808 Y90.960 E0.0002
G1 X140.544 Y90.511 E0.0344
G1 X140.546 Y90.509 E0.0001
G1 X140.619 Y90.468 E0.0034
G1 X140.622 Y90.466 E0.0001
G1 X141.467 Y90.010 E0.0383
G1 X141.470 Y90.009 E0.0001
G1 X141.547 Y89.970 E0.0034
G1 X141.550 Y89.969 E0.0001
G1 X142.330 Y89.602 E0.0344
G1 X142.333 Y89.600 E0.0001
G1 X142.409 Y89.567 E0.0033
G1 X142.412 Y89.566 E0.0001
G1 X143.255 Y89.223 E0.0363
G1 X143.259 Y89.221 E0.0002
G1 X143.358 Y89.185 E0.0042
G1 X143.362 Y89.184 E0.0002
G1 X144.564 Y88.788 E0.0505
G1 X144.567 Y88.786 E0.0002
G1 X144.667 Y88.757 E0.0041
G1 X144.671 Y88.756 E0.0002
G1 X145.560 Y88.527 E0.0367
G1 X145.563 Y88.527 E0.0001
G1 X145.646 Y88.508 E0.0034
G1 X145.650 Y88.507 E0.0001
G1 X146.556 Y88.326 E0.0369
G1 X146.559 Y88.325 E0.0001
G1 X146.647 Y88.310 E0.0035
G1 X146.650 Y88.310 E0.0001
G1 X147.586 Y88.178 E0.0377
G1 X147.590 Y88.177 E0.0002
G1 X147.709 Y88.165 E0.0047
G1 X147.713 Y88.165 E0.0002
G1 X149.256 Y88.065 E0.0617
G1 X149.261 Y88.065 E0.0002
G1 X149.381 Y88.062 E0.0048
G1 X149.386 Y88.062 E0.0002
G1 X150.327 Y88.074 E0.0376
G1 X150.330 Y88.075 E0.0001
G1 X150.404 Y88.077 E0.0030
G1 X150.407 Y88.077 E0.0001
G1 X174.234 Y89.522 E0.9527
G1 X174.242 Y89.523 E0.0003
G1 X174.450 Y89.550 E0.0084
G1 X174.458 Y89.551 E0.0003
G1 X175.202 Y89.698 E0.0303
G1 X175.214 Y89.701 E0.0005
G1 X175.527 Y89.798 E0.0131
G1 X175.539 Y89.802 E0.0005
G1 X176.050 Y90.021 E0.0222
G1 X176.060 Y90.026 E0.0004
G1 X176.301 Y90.155 E0.0109
G1 X176.310 Y90.160 E0.0004
G1 X176.830 Y90.501 E0.0248
G1 X176.839 Y90.508 E0.0004
G1 X177.065 Y90.687 E0.0115
G1 X177.074 Y90.694 E0.0004
G1 X177.460 Y91.065 E0.0214
G1 X177.468 Y91.073 E0.0004
G1 X177.651 Y91.283 E0.0111
G1 X177.657 Y91.291 E0.0004
G1 X178.056 Y91.840 E0.0271
G1 X178.064 Y91.852 E0.0006
G1 X178.251 Y92.192 E0.0155
G1 X178.257 Y92.205 E0.0006
G1 X178.592 Y93.044 E0.0360
G1 X178.597 Y93.059 E0.0006
G1 X178.697 Y93.453 E0.0163
G1 X178.700 Y93.469 E0.0006
G1 X178.795 Y94.259 E0.0318
G1 X178.796 Y94.266 E0.0003
G1 X178.807 Y94.452 E0.0074
G1 X178.807 Y94.459 E0.0003
G1 X178.807 Y104.343 E0.3945
G1 X178.807 Y104.349 E0.0002
G1 X178.799 Y104.501 E0.0061
G1 X178.799 Y104.507 E0.0002
G1 X178.739 Y105.120 E0.0246
G1 X178.737 Y105.133 E0.0005
G1 X178.666 Y105.469 E0.0137
G1 X178.663 Y105.482 E0.0005
G1 X178.400 Y106.282 E0.0336
G1 X178.395 Y106.294 E0.0005
G1 X178.253 Y106.606 E0.0137
G1 X178.247 Y106.618 E0.0005
G1 X177.946 Y107.124 E0.0235
G1 X177.940 Y107.133 E0.0004
G1 X177.773 Y107.363 E0.0113
G1 X177.766 Y107.372 E0.0004
G1 X177.348 Y107.850 E0.0254
G1 X177.339 Y107.859 E0.0005
G1 X177.101 Y108.079 E0.0129
G1 X177.092 Y108.087 E0.0005
G1 X176.571 Y108.479 E0.0260
G1 X176.563 Y108.485 E0.0004
G1 X176.327 Y108.631 E0.0111
G1 X176.317 Y108.636 E0.0004
G1 X175.861 Y108.866 E0.0204
G1 X175.851 Y108.870 E0.0004
G1 X175.602 Y108.970 E0.0107
G1 X175.593 Y108.973 E0.0004
G1 X174.982 Y109.159 E0.0255
G1 X174.972 Y109.161 E0.0004
G1 X174.709 Y109.217 E0.0107
G1 X174.698 Y109.219 E0.0004
G1 X174.265 Y109.272 E0.0174
G1 X174.261 Y109.272 E0.0001
G1 X174.165 Y109.281 E0.0038
G1 X174.162 Y109.281 E0.0001
G1 X150.374 Y110.722 E0.9511
G1 X150.371 Y110.723 E0.0001
G1 X150.290 Y110.725 E0.0032
G1 X150.287 Y110.725 E0.0001
G1 X149.285 Y110.734 E0.0400
G1 X149.281 Y110.734 E0.0001
G1 X149.194 Y110.732 E0.0035
G1 X149.191 Y110.732 E0.0001
G1 X148.360 Y110.693 E0.0332
G1 X148.357 Y110.693 E0.0001
G1 X148.273 Y110.687 E0.0034
G1 X148.270 Y110.686 E0.0001
G1 X147.345 Y110.593 E0.0371
G1 X147.340 Y110.592 E0.0002
G1 X147.221 Y110.575 E0.0048
G1 X147.216 Y110.574 E0.0002
G1 X145.660 Y110.294 E0.0631
G1 X145.655 Y110.293 E0.0002
G1 X145.526 Y110.264 E0.0053
G1 X145.521 Y110.263 E0.0002
G1 X144.341 Y109.945 E0.0488
G1 X144.337 Y109.943 E0.0002
G1 X144.224 Y109.908 E0.0047
G1 X144.220 Y109.907 E0.0002
G1 X142.998 Y109.476 E0.0517
G1 X142.994 Y109.474 E0.0002
G1 X142.897 Y109.436 E0.0042
G1 X142.893 Y109.435 E0.0002
G1 X142.071 Y109.081 E0.0357
G1 X142.067 Y109.080 E0.0002
G1 X141.975 Y109.036 E0.0041
G1 X141.971 Y109.035 E0.0002
G1 X140.863 Y108.470 E0.0496
G1 X140.859 Y108.468 E0.0002
G1 X140.756 Y108.410 E0.0047
G1 X140.752 Y108.408 E0.0002
G1 X139.686 Y107.758 E0.0498
G1 X139.683 Y107.756 E0.0001
G1 X139.606 Y107.706 E0.0037
G1 X139.603 Y107.704 E0.0001
G1 X139.032 Y107.308 E0.0277
G1 X139.030 Y107.306 E0.0001
G1 X138.958 Y107.253 E0.0036
G1 X138.955 Y107.251 E0.0001
G1 X138.009 Y106.511 E0.0479
G1 X138.006 Y106.509 E0.0001
G1 X137.935 Y106.451 E0.0037
G1 X137.933 Y106.448 E0.0001
G1 X137.403 Y105.981 E0.0282
G1 X137.401 Y105.979 E0.0001
G1 X137.335 Y105.918 E0.0036
G1 X137.333 Y105.916 E0.0001
G1 X136.491 Y105.084 E0.0472
G1 X136.488 Y105.081 E0.0002
G1 X136.409 Y104.996 E0.0046
G1 X136.406 Y104.993 E0.0002
G1 X135.563 Y104.026 E0.0512
G1 X135.560 Y104.023 E0.0002
G1 X135.485 Y103.929 E0.0048
G1 X135.482 Y103.925 E0.0002
G1 X134.738 Y102.926 E0.0497
G1 X134.736 Y102.922 E0.0002
G1 X134.666 Y102.821 E0.0049
G1 X134.664 Y102.817 E0.0002
G1 X133.950 Y101.682 E0.0535
G1 X133.946 Y101.675 E0.0003
G1 X133.844 Y101.485 E0.0086
G1 X133.841 Y101.477 E0.0003
G1 X133.622 Y100.992 E0.0213
G1 X133.617 Y100.979 E0.0006
G1 X133.506 Y100.625 E0.0148
G1 X133.503 Y100.612 E0.0006
G1 X133.360 Y99.853 E0.0308
G1 X133.358 Y99.839 E0.0006
G1 X133.333 Y99.469 E0.0148
G1 X133.333 Y99.455 E0.0006
G1 X133.363 Y98.867 E0.0235
G1 X133.365 Y98.852 E0.0006
G1 X133.435 Y98.464 E0.0157
G1 X133.438 Y98.450 E0.0006
G1 X133.691 Y97.645 E0.0337
G1 X133.696 Y97.631 E0.0006
G1 X133.853 Y97.284 E0.0152
G1 X133.860 Y97.271 E0.0006
G1 X134.471 Y96.271 E0.0468
G1 X134.473 Y96.268 E0.0002
G1 X134.529 Y96.182 E0.0041
G1 X134.531 Y96.179 E0.0002
G1 X135.125 Y95.334 E0.0412
G1 E-1.5000 F3000
G1 Z0.448 F600
; inner perimeter
G1 X149.323 Y106.293 F6000
G1 Z0.198 F600
G1 E1.5000 F3000
G1 X148.644 Y106.261 E0.0272 F1444
G1 X147.888 Y106.185 E0.0303
G1 X147.064 Y106.052 E0.0333
G1 X146.570 Y105.948 E0.0202
G1 X146.081 Y105.825 E0.0201
G1 X145.596 Y105.685 E0.0201
G1 X145.106 Y105.524 E0.0206
G1 X144.573 Y105.324 E0.0227
G1 X143.907 Y105.038 E0.0289
G1 X142.973 Y104.562 E0.0418
G1 X142.067 Y104.009 E0.0424
G1 X141.618 Y103.698 E0.0218
G1 X141.227 Y103.405 E0.0195
G1 X140.816 Y103.071 E0.0212
G1 X140.398 Y102.703 E0.0222
G1 X139.808 Y102.119 E0.0331
G1 X141.654 Y102.121 E0.0737
G1 X142.138 Y102.098 E0.0194
G1 X142.564 Y102.006 E0.0174
G1 X142.933 Y101.825 E0.0164
G1 X143.103 Y101.945 E0.0083
G1 X143.604 Y102.125 E0.0212
G1 X144.155 Y102.094 E0.0220
G1 X144.570 Y101.924 E0.0179
G1 X144.918 Y101.649 E0.0177
G1 X145.124 Y101.401 E0.0129
G1 X145.354 Y101.654 E0.0137
G1 X145.672 Y101.887 E0.0157
G1 X146.181 Y102.082 E0.0218
G1 X146.727 Y102.130 E0.0219
G1 X147.326 Y101.976 E0.0247
G1 X147.530 Y101.828 E0.0101
G1 X148.009 Y102.062 E0.0213
G1 X148.545 Y102.138 E0.0216
G1 X149.069 Y102.009 E0.0215
G1 X149.525 Y101.736 E0.0212
G1 X149.727 Y101.905 E0.0105
G1 X150.289 Y102.114 E0.0240
G1 X150.717 Y102.119 E0.0171
G1 X151.120 Y102.038 E0.0164
G1 X151.693 Y101.730 E0.0260
G1 X152.095 Y101.202 E0.0265
G1 X152.224 Y100.739 E0.0192
G1 X152.220 Y100.253 E0.0194
G1 X152.053 Y99.701 E0.0231
G1 X151.608 Y98.899 E0.0366
G1 X152.467 Y99.194 E0.0363
G1 X152.878 Y99.238 E0.0165
G1 X152.895 Y99.992 E0.0301
G1 X152.944 Y100.386 E0.0158
G1 X153.016 Y100.758 E0.0151
G1 X153.115 Y101.111 E0.0146
G1 X153.296 Y101.571 E0.0197
G1 X153.461 Y101.883 E0.0141
G1 X153.650 Y102.174 E0.0139
G1 X153.953 Y102.540 E0.0190
G1 X154.261 Y102.819 E0.0166
G1 X154.529 Y103.010 E0.0132
G1 X154.812 Y103.168 E0.0129
G1 X155.111 Y103.293 E0.0129
G1 X155.559 Y103.421 E0.0186
G1 X156.073 Y103.506 E0.0208
G1 X156.433 Y103.536 E0.0144
G1 X157.973 Y103.566 E0.0615
G1 X158.447 Y103.522 E0.0190
G1 X158.795 Y103.416 E0.0145
G1 X159.157 Y103.223 E0.0164
G1 X159.596 Y102.817 E0.0239
G1 X159.837 Y103.058 E0.0136
G1 X160.196 Y103.316 E0.0176
G1 X160.508 Y103.473 E0.0139
G1 X160.829 Y103.587 E0.0136
G1 X161.269 Y103.682 E0.0180
G1 X161.654 Y103.723 E0.0155
